X:507
T:Robins m'aime
Z:Jack Campin, http://www.campin.me.uk/
F:Jack Campin's Nine-Note Tunebook
% last edit 03-02-2013
C:Adam de la Halle
M:3/4
L:1/4
Q:1/4=144
K:FLyd
  F G A|G/F/ E2|F G2 |F3  |\
  A c2 |B    c2|A F G|A3  |G G2 |F3 |
|:F G A|G/F/ E2|F G2 |F3 :|\
  A c2 |B2    c|A F G|A2 A|G A G|F3 |
  F G A|G/F/ E2|F G2 |F3  |\
  A c2 |B    c2|A F G|A2 A|G A G|F3|]

